X:1
T:Jetzt hat vollbracht
T:Adan Rener
T:Source: Publikation älterer praktischer und theoretischer Musi Werke---R.Eitner--- Berlin---L.Liepmannssohn und M.Bahn---1880. First publication : Ehrart Oeglin's Liederbuch---1512. Editor : André Vierendeels (17/11/17). Notes :  Original clefs : C1, C3, C4, F3 Original note values have been halved Editorial accidentals above the staff 
T:Jetzt hat vollbracht
T:©
T:©
T:©
C:Adan Rener
Z:©
%%score [ 1 2 3 4 ]
L:1/8
Q:1/4=120
M:2/2
K:C
V:1 treble nm="Soprano" snm="S"
V:2 treble nm="Alto" snm="A"
V:3 treble-8 nm="Tenor" snm="T"
V:4 bass nm="Bass" snm="B"
V:1
 z8 | E8 | G4 G4 | A2 c4 BA | B4 E4 | z2 c3 B A2- | A2 GF G4 | A4 z4 | E4 F4 | G8 | F3 G AB A2- | %11
w: |Jetzt|hat voll-||* bracht|Un- * fall|_ sein _ _|Macht|und falsch|an|mir _ _ _ da|
 AG G4 F2 | G4 z2 E2 | A4 G4 | e4 d4 | A8 | G6 A2 | B3 c d4- | d2 cB A2 B2 | c2 A4 G2 | A2 E2 F4 | %21
w: _ _ ich von|dir, mein|her- zigs|Herz, _|_|mit _|gros- sem Schmerz|_ _ _ _ _|* musst _|schei- * den|
 E2 G3 F E2 | D2 d3 c B2- | B2 A2 B4 | z4 B4 | c6 BA | B2 A3 G G2- | G2 F2 G3 A | BABc d4 | %29
w: mich, schei- * den|mich, schei- * *|* den mich;|für-|war _ _|_ ich _ sprich|_ mir nie ge-|schah _ _ _ _|
 B2 c2 A4 | G2 c3 B A2 | G2 A4 G2 | A8 |] %33
w: _ _ _|von we- * *|* * gen|dein.|
V:2
 B,8 | C4 C4 | G,4 z2 E2- | EF E4 DC | D4 C4- | C4 z4 | z4 E4 | F4 G4 | A4 z2 D2- | D2 CB, C4 | %10
w: Jetzt|hat voll-|bracht Un-|* * fall _ _|sein Macht|_|und|falsch an|mir, da-||
 D4 E2 F2- | F2 E2 D4 | z2 D2 E2 G2- | G2 F2 G4 | z4 G4 | E4 F4 | D8 | G8 | F4 z4 | F6 E2 | %20
w: ich von dir,|_ _ _|mein her- *|* zigs Herz,|mit|gros- sem|Schmerz|_||musst _|
 D2 C4 B,2 | C2 G,4 G2- | G2 FE D2 E2 | C4 B,2 G2- | GF F2 G4 | A8 | G2 F4 ED | E2 A,2 z2 E2- | %28
w: schei- * den|mich, schei- *|* * * * den|mich; für- war|_ _ _ ich|sprich:|mir nie _ _|ge- schah, mir|
 E2 DC B,3 C | D2 C4 B,A, | B,2 C2 A,2 F2 | E2 D2 E4 | E8 |] %33
w: _ nie _ _ ge-|schah _ _ _|_ _ _ von|we- * gen|dein.|
V:3
 E8 | G6 A2 | B2 c4 B2 | c4 A4 | G4 A4 | F8 | E8 | z4 B4 | c4 d4 | e8 | A3 B c2 d2- | d2 cB A4 | %12
w: Jetzt|hat voll-|bracht _ _|_ Un-|fall _|_|Macht|und|falsch _|an|mir _ da ich|_ von _ _|
 G8 | z4 E4 | A4 G4 | c6 BA | B8 | G3 A B2 c2 | d6 cB | A2 c2 B4 | A2 e4 d2 | e2 B2 c4 | B8 | %23
w: dir,|mein|her- zigs|Hertz, _ _|_|mit _ gros- sem|Schmerz _ _|_ _ _|* * musst|schei- * den|mich;|
 z4 B4 | c4 B4 | A8 | d6 B2 | c2 d2 G4 | g6 fe | d2 e4 d2 | e4 c2 d2 | e2 A2 B4 | A8 |] %33
w: für-|war ich|sprich:|mir _|nie _ ge-|schah- * *||* von _|we- * gen|dein.|
V:4
 E,8 | C,6 A,,2 | E,4 E,4 | A,,8 | z4 A,4 | A,2 A,3 B, C2- | C2 B,A, B,4 | A,4 E,4 | A,3 G, F,4 | %9
w: Jetzt|hat voll-|bracht _|_|Un-|fall sein- * Macht|_ _ _ _|* und|falsch _ _|
 E,4 E,4 | D,4 z2 D,2 | F,2 G,2 D,4 | z2 G,2 E,2 C,2 | D,4 z2 G,2- | G,2 F,2 G,4 | A,4 F,4 | G,8 | %17
w: _ an|mir, da|ich von dir,|mein her- zigs|Hertz, mein|_ _ _|her- zigs|Hertz,|
 z2 G,4 F,E, | D,3 E, F,2 G,2 | F,3 C, D,2 E,2 | F,2 C,2 D,4 | C,2 E,4 C,2 | G,4 z2 G,2 | %23
w: mit _ _|gros- * * sem|Schmerz _ _ musst|schei- den mich,|musst schei- den|mich; für-|
"^b" E,2 F,2 G,4 | A,4 G,4 | F,4 z2 F,2 | G,2 D,2 F,2 G,2 | E,2 D,2 E,4- |"^#" E,4 z2 G,2- | %29
w: war _ _|_ ich|sprich: mir|nie ge- schah von|we- gen dein,|_ mir|
 G,2 C,2 F,4 | E,2 C,2 F,3 E, | C,2 F,2 E,4 | A,,8 |] %33
w: _ nie ge-|schah von we- *||dein.|

